docs/img/all-services/11.svg

<svg width="80" height="80" viewBox="0 0 80 80" fill="none" xmlns="http://www.w3.org/2000/svg">
<path d="M39.9922 8.0182V4.79858" stroke="#0098D0" stroke-width="2" stroke-miterlimit="10" stroke-linecap="round" stroke-linejoin="round"/>
<path d="M38.3945 6.40833H41.5896" stroke="#0098D0" stroke-width="2" stroke-miterlimit="10" stroke-linecap="round" stroke-linejoin="round"/>
<path d="M36.6354 28.0432L35.0629 30.7758C34.5417 31.68 33.7161 32.3652 32.7351 32.7064L27.0115 34.6952C26.8008 34.7419 26.5291 34.8294 26.2378 34.9363C26.2071 34.9473 26.1771 34.9588 26.1464 34.9698C23.2557 36.0644 21.3959 38.9191 21.3959 42.0307L20.418 50.4398" stroke="#0098D0" stroke-width="2" stroke-miterlimit="10" stroke-linecap="round" stroke-linejoin="round"/>
<path d="M43.3633 28.0432L44.936 30.7758C45.4567 31.68 46.2831 32.3652 47.2637 32.7064L52.9867 34.6952C53.1979 34.7419 53.4691 34.8294 53.7609 34.9363C53.7916 34.9473 53.8217 34.9588 53.8524 34.9698C56.743 36.0644 58.6029 38.9191 58.6029 42.0307L59.5802 50.4398" stroke="#0098D0" stroke-width="2" stroke-miterlimit="10" stroke-linecap="round" stroke-linejoin="round"/>
<path d="M47.5 45.5732H53.7808" stroke="#0098D0" stroke-width="2" stroke-miterlimit="10" stroke-linecap="round" stroke-linejoin="round"/>
<path d="M31.015 12.7809C31.106 15.0297 31.8676 21.9375 34.1798 25.6566C35.5411 27.7644 37.6978 29.0088 39.9903 29.0088C42.2827 29.0088 44.4394 27.7649 45.8007 25.6566C47.6203 22.8401 48.3358 17.1999 48.5777 14.6015C48.6505 13.821 48.1234 13.1154 47.3602 12.966C44.482 12.4041 41.6767 12.1456 38.7439 12.0104C35.836 11.8762 32.5698 11.3814 30.6914 8.88779V4.53232C30.6914 2.81823 32.0699 1.42859 33.7709 1.42859H46.216C47.9175 1.42859 49.296 2.81771 49.296 4.53181V10.799" stroke="#0098D0" stroke-width="2" stroke-miterlimit="10" stroke-linecap="round" stroke-linejoin="round"/>
<path d="M53.7819 10.4268H60.8371H64.9351C67.3462 10.4268 69.3006 12.3962 69.3006 14.8258V49.8673C69.3006 52.297 67.3462 54.2663 64.9351 54.2663H15.0678C12.6568 54.2663 10.7031 52.297 10.7031 49.8673V14.8258C10.7031 12.3967 12.6568 10.4268 15.0678 10.4268H18.702H27.1337" stroke="#0098D0" stroke-width="2" stroke-miterlimit="10" stroke-linecap="round" stroke-linejoin="round"/>
<path d="M25.0546 54.2657L22.3906 61.0508H39.9995H57.6089L54.945 54.2657" stroke="#0098D0" stroke-width="2" stroke-miterlimit="10" stroke-linecap="round" stroke-linejoin="round"/>
<path d="M64.6371 66.1953L69.7366 75.4667C70.5039 76.8605 69.5029 78.5714 67.9215 78.5714H39.9996H12.0782C10.4973 78.5714 9.49636 76.8605 10.2631 75.4667L15.3626 66.1953H64.6371Z" stroke="#0098D0" stroke-width="2" stroke-miterlimit="10" stroke-linecap="round" stroke-linejoin="round"/>
</svg>

<svg width="80" height="80" fill="none" xmlns="http://www.w3.org/2000/svg"><path d="M39.992 8.018v-3.22m-1.597 1.61h3.195m-4.955 21.635l-1.572 2.733a4.33 4.33 0 01-2.328 1.93l-5.723 1.99a6.29 6.29 0 00-.774.24l-.092.034c-2.89 1.094-4.75 3.95-4.75 7.06l-.978 8.41m22.945-22.397l1.573 2.733a4.33 4.33 0 002.328 1.93l5.723 1.99c.21.046.482.133.774.24l.091.034c2.891 1.094 4.75 3.95 4.75 7.06l.978 8.41M47.5 45.573h6.28" stroke="#0098D0" stroke-width="2" stroke-miterlimit="10" stroke-linecap="round" stroke-linejoin="round"/><path d="M31.015 12.78c.091 2.25.853 9.158 3.165 12.877 1.361 2.107 3.518 3.352 5.81 3.352 2.293 0 4.45-1.244 5.81-3.352 1.82-2.817 2.536-8.457 2.778-11.056a1.52 1.52 0 00-1.218-1.635c-2.878-.562-5.683-.82-8.616-.956-2.908-.134-6.174-.629-8.053-3.122V4.532c0-1.714 1.379-3.103 3.08-3.103h12.445c1.701 0 3.08 1.389 3.08 3.103v6.267" stroke="#0098D0" stroke-width="2" stroke-miterlimit="10" stroke-linecap="round" stroke-linejoin="round"/><path d="M53.782 10.427h11.153c2.411 0 4.366 1.97 4.366 4.399v35.041c0 2.43-1.955 4.4-4.366 4.4H15.068c-2.411 0-4.365-1.97-4.365-4.4V14.826c0-2.43 1.954-4.4 4.365-4.4h12.066" stroke="#0098D0" stroke-width="2" stroke-miterlimit="10" stroke-linecap="round" stroke-linejoin="round"/><path d="M25.055 54.266L22.39 61.05h35.218l-2.664-6.785m9.693 11.93l5.1 9.272c.767 1.394-.234 3.104-1.816 3.104H12.078c-1.58 0-2.582-1.71-1.815-3.104l5.1-9.272h49.274z" stroke="#0098D0" stroke-width="2" stroke-miterlimit="10" stroke-linecap="round" stroke-linejoin="round"/></svg>
